X:9
T:Oui, Seigneur, nous croyons - SEL1
C:C. Tassin
M:C
L:1/8
K:Cm
Sy"Dom"c3c "Mib"B3E/F/|"Sol"G4 "Dom"C3/E/ G3/F/|"Lab"E2 "Fa"C3/C/-"Dom"C4||
w:Oui, Sei-gneur, nous cro-|yons: fais gran-dir en|nous la foi._|
CD "Dom"!shortphrase!E16 E16 "Sib"F16 DB, "Dom"C2|
w:1.~Si ta bouche~proclame que Jsus est Sei-gneur;|
w:2.~Si ta bouche~proclame que~notre~Pre~a~fait~le monde par a-mour;|
w:3.~Si ta bouche~proclame que~le~Christ~vient~rassembler~les~enfants~de Dieu dis-per-ss;|
w:4.~Si ta bouche~proclame que~le~Christ~ressuscit~nous~a~don-n son Es-prit;|
EF "Mib"!shortphrase!G16 G16 "Fa"F16 E "Sol"D2|"Dom"C3/C/ "Fa"F2- F3/G/-"Sol"G4S||
w:1.~Si tu crois~dans~ton~coeur que~Dieu~l'a~rele-v~d'entre les morts;|Tu se-ras sau-v._|
w:2.~Si tu crois~dans~ton~coeur qu'il~fait~tout homme~~son i-mage;|Tu se-ras sau-v._|
w:3.~Si tu crois~dans~ton~coeur que~la~Bonne~Nou-velle~est~pour les pauvres;|Tu se-ras sau-v._|
w:4.~Si tu crois~dans~ton~coeur que~l'Esprit~nous~en-traine~vers le Pre;|Tu se-ras sau-v._|
